X: 1
T: Jack Rowe
M: 4/4
L: 1/8
R: reel
K: Gmaj
|: F3F GFED|(3EFG AB c2 BA|GBdg (3efg dB|GBAF GFED|
(3EFG AF GFED|(3EFG AB c2BA|G3B AGAB |1 GEDE GABG:|2 GEDE GABd||
|: g3e fddf|efge fdef|eB (3BBB efge|fdef gfef|
ga (3bag ef (3gfe|dedc BcBA|GBdB c2 BA|1 GEDE GABd :|2 GEDE GABG||
